src/assets/icons/auto-deposit.svg

<svg xmlns="http://www.w3.org/2000/svg" width="75" height="75" viewBox="0 0 75 75">
  <g fill-rule="evenodd">
    <path fill="#5E9C43" d="M20.6712524,54.7556926 L53.9373814,54.7556926 L53.9373814,25.7234345 L20.6712524,25.7234345 L20.6712524,54.7556926 Z M20.6712524,23.9089184 L26.4710508,23.9089184 L26.4710508,21.4895636 L20.6712524,21.4895636 L20.6712524,23.9089184 Z M29.4952443,23.9089184 L45.2645991,23.9089184 L45.2645991,21.4895636 L29.4952443,21.4895636 L29.4952443,23.9089184 Z M48.2887927,23.9089184 L53.9373814,23.9089184 L53.9373814,21.4895636 L48.2887927,21.4895636 L48.2887927,23.9089184 Z M55.4494782,18.46537 L48.2887927,18.46537 L48.2887927,16.9532732 C48.2887927,16.117991 47.6119782,15.4411765 46.7766959,15.4411765 C45.9414137,15.4411765 45.2645991,16.117991 45.2645991,16.9532732 L45.2645991,18.46537 L29.4952443,18.46537 L29.4952443,16.9532732 C29.4952443,16.117991 28.8184298,15.4411765 27.9831475,15.4411765 C27.1484701,15.4411765 26.4710508,16.117991 26.4710508,16.9532732 L26.4710508,18.46537 L19.1591556,18.46537 C18.3238733,18.46537 17.6470588,19.1421845 17.6470588,19.9774668 L17.6470588,56.2677894 C17.6470588,57.1030716 18.3238733,57.7798861 19.1591556,57.7798861 L55.4494782,57.7798861 C56.2847604,57.7798861 56.961575,57.1030716 56.961575,56.2677894 L56.961575,19.9774668 C56.961575,19.1421845 56.2847604,18.46537 55.4494782,18.46537 L55.4494782,18.46537 Z"/>
    <polyline fill="#5E9C43" points="29.054 40.241 26.471 42.825 32.729 49.081 48.529 33.465 45.945 30.882 32.729 43.915 29.054 40.241"/>
    <path fill="#D9E1DE" d="M37.5731855,75 L37.4225806,75 C17.2233871,74.9600806 0.721572581,58.8665323 0.022983871,38.8258065 L0.022983871,36.1784274 C0.722782258,16.1122984 17.2645161,0.00362903226 37.4981855,0.00362903226 C58.1745968,0.00362903226 74.9957661,16.8254032 74.9957661,37.5024194 C74.9957661,58.1534274 58.215121,74.958871 37.5731855,75 M37.4981855,3.84979839 C18.9423387,3.84979839 3.84616935,18.9459677 3.84616935,37.5024194 C3.84616935,56.0576613 18.9423387,71.1538306 37.4981855,71.1538306 C56.0540323,71.1538306 71.1502016,56.0576613 71.1502016,37.5024194 C71.1502016,18.9459677 56.0540323,3.84979839 37.4981855,3.84979839"/>
  </g>
</svg>

<svg xmlns="http://www.w3.org/2000/svg" width="75" height="75"><g fill-rule="evenodd"><path fill="#5E9C43" d="M20.671 54.756h33.266V25.723H20.671v29.033zm0-30.847h5.8v-2.42h-5.8v2.42zm8.824 0h15.77v-2.42h-15.77v2.42zm18.794 0h5.648v-2.42H48.29v2.42zm7.16-5.444h-7.16v-1.512a1.512 1.512 0 10-3.024 0v1.512h-15.77v-1.512a1.512 1.512 0 10-3.024 0v1.512H19.16c-.835 0-1.512.677-1.512 1.512v36.29c0 .836.677 1.513 1.512 1.513h36.29c.836 0 1.513-.677 1.513-1.512v-36.29c0-.836-.677-1.513-1.513-1.513z"/><path fill="#5E9C43" d="M29.054 40.241l-2.583 2.584 6.258 6.256 15.8-15.616-2.584-2.583-13.216 13.033-3.675-3.674"/><path fill="#D9E1DE" d="M37.573 75h-.15C17.223 74.96.722 58.867.023 38.826v-2.648C.723 16.112 17.265.004 37.498.004c20.677 0 37.498 16.821 37.498 37.498 0 20.651-16.78 37.457-37.423 37.498m-.075-71.15c-18.556 0-33.652 15.096-33.652 33.652s15.096 33.652 33.652 33.652S71.15 56.058 71.15 37.502 56.054 3.85 37.498 3.85"/></g></svg>
